images/icons/pc.svg

<svg width="73" height="74" viewBox="0 0 73 74" fill="none" xmlns="http://www.w3.org/2000/svg">
<g id="pc_2292112 1" clip-path="url(#clip0_26_683)">
<g id="Page-1">
<g id="016---PC-and-Monitor">
<path id="Shape" d="M6.08334 29.7835C6.40673 29.7854 6.71757 29.6584 6.94717 29.4307L11.8138 24.564C12.2909 24.0869 12.2909 23.3134 11.8138 22.8363C11.3368 22.3592 10.5633 22.3592 10.0862 22.8363L5.21951 27.703C4.98918 27.9314 4.85962 28.2424 4.85962 28.5668C4.85962 28.8912 4.98918 29.2022 5.21951 29.4307C5.44911 29.6584 5.75995 29.7854 6.08334 29.7835Z" fill="black"/>
<path id="Shape_2" d="M6.08334 37.0835C6.40673 37.0854 6.71757 36.9584 6.94717 36.7307L19.1138 24.564C19.5909 24.0869 19.5909 23.3134 19.1138 22.8363C18.6368 22.3592 17.8633 22.3592 17.3862 22.8363L5.21951 35.003C4.98918 35.2314 4.85962 35.5424 4.85962 35.8668C4.85962 36.1912 4.98918 36.5022 5.21951 36.7307C5.44912 36.9584 5.75995 37.0854 6.08334 37.0835Z" fill="black"/>
<path id="Shape_3" d="M69.35 0.583496H37.7167C35.7008 0.583496 34.0667 2.21766 34.0667 4.2335V17.6168H6.08333C2.7236 17.6168 0 20.3404 0 23.7002V55.3335C0 58.6932 2.7236 61.4168 6.08333 61.4168H19.4667V66.2835H15.8167C13.8008 66.2835 12.1667 67.9177 12.1667 69.9335C12.1667 71.9493 13.8008 73.5835 15.8167 73.5835H69.35C71.3658 73.5835 73 71.9493 73 69.9335V4.2335C73 2.21766 71.3658 0.583496 69.35 0.583496ZM6.08333 20.0502H49.8833C51.8992 20.0502 53.5333 21.6843 53.5333 23.7002V52.9002H2.43333V23.7002C2.43333 21.6843 4.06749 20.0502 6.08333 20.0502ZM2.43333 55.3335H53.5333C53.5333 57.3493 51.8992 58.9835 49.8833 58.9835H6.08333C4.06749 58.9835 2.43333 57.3493 2.43333 55.3335ZM21.9 61.4168H34.0667V66.2835H21.9V61.4168ZM37.7167 71.1502H15.8167C15.1447 71.1502 14.6 70.6054 14.6 69.9335C14.6 69.2616 15.1447 68.7168 15.8167 68.7168H40.15C40.8219 68.7168 41.3667 69.2616 41.3667 69.9335C41.3667 70.6054 40.8219 71.1502 40.15 71.1502H37.7167ZM70.5667 69.9335C70.5667 70.6054 70.0219 71.1502 69.35 71.1502H43.581C43.9754 70.0347 43.8046 68.7973 43.1229 67.8303C42.4412 66.8634 41.3331 66.2868 40.15 66.2835H36.5V61.4168H49.8833C53.2431 61.4168 55.9667 58.6932 55.9667 55.3335V23.7002C55.9667 20.3404 53.2431 17.6168 49.8833 17.6168H36.5V4.2335C36.5 3.56155 37.0447 3.01683 37.7167 3.01683H69.35C70.0219 3.01683 70.5667 3.56155 70.5667 4.2335V69.9335Z" fill="black"/>
<path id="Shape_4" d="M65.7 6.66675H41.3667C40.0228 6.66675 38.9333 7.75619 38.9333 9.10008V11.5334C38.9333 12.8773 40.0228 13.9667 41.3667 13.9667H65.7C67.0439 13.9667 68.1334 12.8773 68.1334 11.5334V9.10008C68.1334 7.75619 67.0439 6.66675 65.7 6.66675ZM41.3667 11.5334V9.10008H65.7V11.5334H41.3667Z" fill="black"/>
<path id="Shape_5" d="M63.2666 24.9169C65.2825 24.9169 66.9166 23.2828 66.9166 21.2669C66.9166 19.2511 65.2825 17.6169 63.2666 17.6169C61.2508 17.6169 59.6166 19.2511 59.6166 21.2669C59.6166 23.2828 61.2508 24.9169 63.2666 24.9169ZM63.2666 20.0503C63.9386 20.0503 64.4833 20.595 64.4833 21.2669C64.4833 21.9389 63.9386 22.4836 63.2666 22.4836C62.5947 22.4836 62.05 21.9389 62.05 21.2669C62.05 20.595 62.5947 20.0503 63.2666 20.0503Z" fill="black"/>
<path id="Shape_6" d="M66.9166 31.0001C66.9166 28.9843 65.2825 27.3501 63.2666 27.3501C61.2508 27.3501 59.6166 28.9843 59.6166 31.0001C59.6166 33.0159 61.2508 34.6501 63.2666 34.6501C65.2825 34.6501 66.9166 33.0159 66.9166 31.0001ZM63.2666 32.2168C62.5947 32.2168 62.05 31.672 62.05 31.0001C62.05 30.3282 62.5947 29.7834 63.2666 29.7834C63.9386 29.7834 64.4833 30.3282 64.4833 31.0001C64.4833 31.672 63.9386 32.2168 63.2666 32.2168Z" fill="black"/>
<path id="Shape_7" d="M47.45 63.8501C46.7781 63.8501 46.2333 64.3948 46.2333 65.0668V67.5001C46.2333 68.172 46.7781 68.7168 47.45 68.7168C48.122 68.7168 48.6667 68.172 48.6667 67.5001V65.0668C48.6667 64.3948 48.122 63.8501 47.45 63.8501Z" fill="black"/>
<path id="Shape_8" d="M52.3166 63.8501C51.6447 63.8501 51.1 64.3948 51.1 65.0668V67.5001C51.1 68.172 51.6447 68.7168 52.3166 68.7168C52.9886 68.7168 53.5333 68.172 53.5333 67.5001V65.0668C53.5333 64.3948 52.9886 63.8501 52.3166 63.8501Z" fill="black"/>
<path id="Shape_9" d="M57.1833 63.8501C56.5114 63.8501 55.9667 64.3948 55.9667 65.0668V67.5001C55.9667 68.172 56.5114 68.7168 57.1833 68.7168C57.8553 68.7168 58.4 68.172 58.4 67.5001V65.0668C58.4 64.3948 57.8553 63.8501 57.1833 63.8501Z" fill="black"/>
<path id="Shape_10" d="M62.05 63.8501C61.378 63.8501 60.8333 64.3948 60.8333 65.0668V67.5001C60.8333 68.172 61.378 68.7168 62.05 68.7168C62.7219 68.7168 63.2666 68.172 63.2666 67.5001V65.0668C63.2666 64.3948 62.7219 63.8501 62.05 63.8501Z" fill="black"/>
<path id="Shape_11" d="M66.9167 63.8501C66.2447 63.8501 65.7 64.3948 65.7 65.0668V67.5001C65.7 68.172 66.2447 68.7168 66.9167 68.7168C67.5886 68.7168 68.1333 68.172 68.1333 67.5001V65.0668C68.1333 64.3948 67.5886 63.8501 66.9167 63.8501Z" fill="black"/>
</g>
</g>
</g>
<defs>
<clipPath id="clip0_26_683">
<rect width="73" height="73" fill="white" transform="translate(0 0.583496)"/>
</clipPath>
</defs>
</svg>

<svg xmlns="http://www.w3.org/2000/svg" width="73" height="74" fill="none"><g fill="#000" clip-path="url(#a)"><path d="M6.083 29.784c.324.001.635-.126.864-.353l4.867-4.867a1.222 1.222 0 0 0-1.728-1.728L5.22 27.703a1.217 1.217 0 0 0 .863 2.08ZM6.083 37.084c.324.001.635-.126.864-.353l12.167-12.167a1.222 1.222 0 0 0-1.728-1.728L5.22 35.003a1.217 1.217 0 0 0 .863 2.08Z"/><path d="M69.35.583H37.717a3.65 3.65 0 0 0-3.65 3.65v13.384H6.083A6.083 6.083 0 0 0 0 23.7v31.634a6.083 6.083 0 0 0 6.083 6.083h13.384v4.867h-3.65a3.65 3.65 0 1 0 0 7.3H69.35a3.65 3.65 0 0 0 3.65-3.65v-65.7a3.65 3.65 0 0 0-3.65-3.65ZM6.083 20.05h43.8a3.65 3.65 0 0 1 3.65 3.65v29.2h-51.1V23.7a3.65 3.65 0 0 1 3.65-3.65Zm-3.65 35.283h51.1a3.65 3.65 0 0 1-3.65 3.65h-43.8a3.65 3.65 0 0 1-3.65-3.65ZM21.9 61.418h12.167v4.867H21.9v-4.867Zm15.817 9.733h-21.9a1.217 1.217 0 0 1 0-2.433H40.15a1.217 1.217 0 0 1 0 2.433h-2.433Zm32.85-1.217c0 .672-.545 1.217-1.217 1.217H43.581a3.65 3.65 0 0 0-3.431-4.867H36.5v-4.866h13.383a6.083 6.083 0 0 0 6.084-6.084V23.7a6.083 6.083 0 0 0-6.084-6.083H36.5V4.233c0-.671.545-1.216 1.217-1.216H69.35c.672 0 1.217.545 1.217 1.217v65.7Z"/><path d="M65.7 6.667H41.367A2.433 2.433 0 0 0 38.933 9.1v2.433a2.433 2.433 0 0 0 2.434 2.434H65.7a2.433 2.433 0 0 0 2.433-2.434V9.1A2.433 2.433 0 0 0 65.7 6.667Zm-24.333 4.866V9.1H65.7v2.433H41.367ZM63.267 24.917a3.65 3.65 0 1 0 0-7.3 3.65 3.65 0 0 0 0 7.3Zm0-4.867a1.217 1.217 0 1 1 0 2.434 1.217 1.217 0 0 1 0-2.434ZM66.917 31a3.65 3.65 0 1 0-7.3 0 3.65 3.65 0 0 0 7.3 0Zm-3.65 1.217a1.217 1.217 0 1 1 0-2.434 1.217 1.217 0 0 1 0 2.434ZM47.45 63.85c-.672 0-1.217.545-1.217 1.217V67.5a1.217 1.217 0 0 0 2.434 0v-2.433c0-.672-.545-1.217-1.217-1.217ZM52.317 63.85c-.672 0-1.217.545-1.217 1.217V67.5a1.217 1.217 0 1 0 2.433 0v-2.433c0-.672-.544-1.217-1.216-1.217ZM57.183 63.85c-.672 0-1.216.545-1.216 1.217V67.5a1.217 1.217 0 1 0 2.433 0v-2.433c0-.672-.545-1.217-1.217-1.217ZM62.05 63.85c-.672 0-1.217.545-1.217 1.217V67.5a1.217 1.217 0 0 0 2.434 0v-2.433c0-.672-.545-1.217-1.217-1.217ZM66.917 63.85c-.672 0-1.217.545-1.217 1.217V67.5a1.217 1.217 0 0 0 2.433 0v-2.433c0-.672-.544-1.217-1.216-1.217Z"/></g><defs><clipPath id="a"><path fill="#fff" d="M0 .583h73v73H0z"/></clipPath></defs></svg>
